svg/design/exclude_line.svg

<svg xmlns="http://www.w3.org/2000/svg" width="24" height="24" viewBox="0 0 24 24"><g fill="none"><path d="M24,0 L24,24 L0,24 L0,0 L24,0 Z M12.5935,23.2578 L12.5819,23.2595 L12.5109,23.295 L12.4919,23.2987 L12.4767,23.295 L12.4057,23.2595 C12.3958,23.2564 12.387,23.259 12.3821,23.2649 L12.378,23.2758 L12.3609,23.7031 L12.3659,23.7235 L12.3769,23.7357 L12.4805,23.8097 L12.4953,23.8136 L12.5071,23.8097 L12.6107,23.7357 L12.6233,23.7197 L12.6267,23.7031 L12.6096,23.2758 C12.6076,23.2657 12.601,23.2593 12.5935,23.2578 Z M12.8584,23.1453 L12.8445,23.1473 L12.6598,23.2397 L12.6499,23.2499 L12.6472,23.2611 L12.6651,23.6906 L12.6699,23.7034 L12.6784,23.7105 L12.8793,23.8032 C12.8914,23.8069 12.9022,23.803 12.9078,23.7952 L12.9118,23.7812 L12.8777,23.1665 C12.8753,23.1546 12.8674,23.147 12.8584,23.1453 Z M12.143,23.1473 C12.1332,23.1424 12.1222,23.1453 12.1156,23.1526 L12.1099,23.1665 L12.0758,23.7812 C12.0751,23.7927 12.0828,23.8019 12.0926,23.8046 L12.1083,23.8032 L12.3092,23.7105 L12.3186,23.7024 L12.3225,23.6906 L12.3404,23.2611 L12.3372,23.2485 L12.3278,23.2397 L12.143,23.1473 Z"/><path fill="#09244B" d="M14,3 C15.1046,3 16,3.89543 16,5 L16,8 L19,8 C20.1046,8 21,8.89543 21,10 L21,19 C21,20.1046 20.1046,21 19,21 L10,21 C8.89543,21 8,20.1046 8,19 L8,16 L5,16 C3.89543,16 3,15.1046 3,14 L3,5 C3,3.89543 3.89543,3 5,3 L14,3 Z M14,5 L5,5 L5,14 L8,14 L8,13.5 C8,12.9477 8.44772,12.5 9,12.5 C9.55228,12.5 10,12.9477 10,13.5 L10,14 L10.5,14 C11.0523,14 11.5,14.4477 11.5,15 C11.5,15.5523 11.0523,16 10.5,16 L10,16 L10,19 L19,19 L19,10 L16,10 L16,10.5 C16,11.0523 15.5523,11.5 15,11.5 C14.4477,11.5 14,11.0523 14,10.5 L14,10 L13.5,10 C12.9477,10 12.5,9.55228 12.5,9 C12.5,8.44772 12.9477,8 13.5,8 L14,8 L14,5 Z M15,12.5 C15.51285,12.5 15.9355092,12.886027 15.9932725,13.3833761 L16,13.5 L16,14 C16,15.0543909 15.18415,15.9181678 14.1492661,15.9945144 L14,16 L13.5,16 C12.9477,16 12.5,15.5523 12.5,15 C12.5,14.48715 12.886027,14.0644908 13.3833761,14.0067275 L13.5,14 L14,14 L14,13.5 C14,12.9477 14.4477,12.5 15,12.5 Z M10.5,8 C11.0523,8 11.5,8.44772 11.5,9 C11.5,9.51283143 11.113973,9.93550653 10.6166239,9.9932722 L10.5,10 L10,10 L10,10.5 C10,11.0523 9.55228,11.5 9,11.5 C8.48716857,11.5 8.06449347,11.113973 8.0067278,10.6166239 L8,10.5 L8,10 C8,8.94563773 8.81587733,8.08183483 9.85073759,8.00548573 L10,8 L10.5,8 Z"/></g></svg>

<svg xmlns="http://www.w3.org/2000/svg" width="24" height="24"><g fill="none"><path d="M24 0v24H0V0zM12.594 23.258l-.012.002-.071.035-.02.004-.014-.004-.071-.036c-.01-.003-.019 0-.024.006l-.004.01-.017.428.005.02.01.013.104.074.015.004.012-.004.104-.074.012-.016.004-.017-.017-.427c-.002-.01-.009-.017-.016-.018m.264-.113-.014.002-.184.093-.01.01-.003.011.018.43.005.012.008.008.201.092c.012.004.023 0 .029-.008l.004-.014-.034-.614c-.003-.012-.01-.02-.02-.022m-.715.002a.023.023 0 0 0-.027.006l-.006.014-.034.614c0 .012.007.02.017.024l.015-.002.201-.093.01-.008.003-.011.018-.43-.003-.012-.01-.01z"/><path fill="#09244B" d="M14 3a2 2 0 0 1 2 2v3h3a2 2 0 0 1 2 2v9a2 2 0 0 1-2 2h-9a2 2 0 0 1-2-2v-3H5a2 2 0 0 1-2-2V5a2 2 0 0 1 2-2zm0 2H5v9h3v-.5a1 1 0 1 1 2 0v.5h.5a1 1 0 1 1 0 2H10v3h9v-9h-3v.5a1 1 0 1 1-2 0V10h-.5a1 1 0 1 1 0-2h.5zm1 7.5a1 1 0 0 1 .993.883L16 13.5v.5a2 2 0 0 1-1.85 1.995L14 16h-.5a1 1 0 0 1-.117-1.993L13.5 14h.5v-.5a1 1 0 0 1 1-1M10.5 8a1 1 0 0 1 .117 1.993L10.5 10H10v.5a1 1 0 0 1-1.993.117L8 10.5V10a2 2 0 0 1 1.85-1.995L10 8z"/></g></svg>
